docs/graphics/general/IconButtonFloating.svg

<svg xmlns="http://www.w3.org/2000/svg" fill="none" viewBox="0 0 312 180"><g clip-path="url(#iconbutton)"><path fill="#F6FDF5" d="M0 0h312v180H0z"/><ellipse cx="244" cy="151" fill="#009990" fill-opacity=".5" rx="36" ry="7"/><circle cx="244" cy="107" r="28" fill="#005C62"/><path fill="#F6FDF5" fill-rule="evenodd" d="M244 113.805a2.43 2.43 0 1 0-.001 4.861 2.43 2.43 0 0 0 .001-4.861Zm6.563-11.909c0 2.305-1.245 4.511-3.171 5.618-.442.255-1.109 1.291-1.109 2.276a2.282 2.282 0 0 1-2.283 2.282 2.282 2.282 0 0 1-2.283-2.282c0-2.479 1.429-5.1 3.398-6.233.44-.252.883-.903.883-1.661A2 2 0 0 0 244 99.899a2 2 0 0 0-1.998 1.997 2.282 2.282 0 1 1-4.564 0A6.569 6.569 0 0 1 244 95.333a6.57 6.57 0 0 1 6.563 6.563Z" clip-rule="evenodd"/></g><defs><clipPath id="iconbutton"><path fill="#fff" d="M0 0h312v180H0z"/></clipPath></defs></svg>

<svg width="312" height="180" viewBox="0 0 312 180" fill="none" xmlns="http://www.w3.org/2000/svg">
<ellipse cx="244" cy="151" rx="36" ry="7" fill="#009990" fill-opacity="0.5"/>
<circle cx="244" cy="107" r="28" fill="#005C62"/>
<path fill-rule="evenodd" clip-rule="evenodd" d="M244 113.805C242.657 113.805 241.569 114.893 241.569 116.236C241.569 117.578 242.657 118.666 244 118.666C245.343 118.666 246.431 117.578 246.431 116.236C246.431 114.893 245.343 113.805 244 113.805ZM250.563 101.896C250.563 104.201 249.318 106.407 247.392 107.514C246.95 107.769 246.283 108.805 246.283 109.79C246.283 111.051 245.261 112.072 244 112.072C242.739 112.072 241.717 111.051 241.717 109.79C241.717 107.311 243.146 104.69 245.115 103.557C245.555 103.305 245.998 102.654 245.998 101.896C245.998 100.794 245.102 99.8986 244 99.8986C242.898 99.8986 242.002 100.794 242.002 101.896C242.002 103.156 240.981 104.178 239.72 104.178C238.459 104.178 237.438 103.156 237.438 101.896C237.438 98.2769 240.38 95.333 244 95.333C247.62 95.333 250.563 98.2769 250.563 101.896Z" fill="#F6FDF5"/>
</svg>
